X: 8085
T: Constitution Square
R: jig
M: 6/8
K: Gmajor
D3 E3|D2 G GAB|A3 G3|E3 D3|
E2 G GAB|A6|D3 E3|D2 G GAB|
d3 B3|A3 B3|ABA G2 E|A6|
D3 E3|D2 G GAB|A3 G3|E3 D3|
E2 G GAB|E6|D3 E3|D2 G GAB|
d3 B3|A3 B3|ABA G2 G|G6||
|:d3 B3|B3 BAG|E3 D3|d3 B2 A|
G3 Bcd|e6|d3 B3|B3 BAG|
E3 G3|D3 G2 B|ABA G2 G|G6:|

